static/images/platforms/dark/flutter.svg

<svg xmlns="http://www.w3.org/2000/svg" viewBox="0 0 1999 2474.2"><path d="m514.28 1500.66-298.899-306.668L1185.9 198.325h597.72m0 918.799H1185.9L962 1346.844l298.9 306.668" style="fill:#e4e4e7"/><path d="m962 1960.1 223.9 229.72h597.72l-522.72-536.308" style="fill:#e4e4e7"/><path d="m663.807 1653.673 298.428-306.266 298.43 306.185-298.43 306.267ZM962.235 1959.859l298.43-306.186 41.657 42.74-298.428 306.186Z" style="fill:#e4e4e7"/><path d="m962 1960.1 443.485-157.198-144.585-149.47" style="fill:#e4e4e7"/></svg>

<?xml version="1.0" encoding="utf-8"?>
<svg enable-background="new 0 0 1999 2474.2" viewBox="0 0 1999 2474.2" xmlns="http://www.w3.org/2000/svg">
  <path d="M 514.28 1500.66 L 215.381 1193.992 L 1185.9 198.325 L 1783.62 198.325 M 1783.62 1117.124 L 1185.9 1117.124 L 962 1346.844 L 1260.9 1653.512" style="fill: rgb(228, 228, 231);"/>
  <path d="M 962 1960.1 L 1185.9 2189.82 L 1783.62 2189.82 L 1260.9 1653.512" style="fill: rgb(228, 228, 231);"/>
  <path d="M 663.807 1653.673 L 962.235 1347.407 L 1260.665 1653.592 L 962.235 1959.859 Z" style="fill: rgb(228, 228, 231);"/>
  <path d="M 962.235 1959.859 L 1260.665 1653.673 L 1302.322 1696.413 L 1003.894 2002.599 Z" style="fill: rgb(228, 228, 231);"/>
  <path d="M 962 1960.1 L 1405.485 1802.902 L 1260.9 1653.432" style="fill: rgb(228, 228, 231);"/>
</svg>
